!! 00000] TT[WS
!!!OTL: Jin lanfang
!!!ARE: Asia, China, Shanxi Wutai
!! Ethnic Group: Han
!! WII, 202 (1)
!!!SCT: J0702
!!!YEM: Copyright 1995, estate of Helmut Schaffrath.
**kern
*ICvox
*Ivox
*M2/4
*k[f#]
*G:
{4b
8dd
8a
=1
4b
8a
8b
=2
8dd
8b
8dd
8ee
=3
8b
8a
8g
8b
=4
2a}
=5
{4.a
8b
=6
4.d
8e
=7
4g
8b
8a
=8
4.g
8a
=9
2g}
=10
{4.a
8b
=11
4.g
8b
=12
8a
8g
[4e
=13
4e]
8e
8g
=14
2a}
=15
{8a
8b
8g
8e
=16
4d
4d}
=17
{4dd
4dd
=18
8b
8dd
8b
8a
=19
8g
8a
8dd
8b
=20
4.a
8b
=21
2a}
==
!!!AGN: Xiaodiao, Shidiao. Fengsu, Sichun
!!!ONB: ESAC (Essen Associative Code) Database: CHINA
!!!AMT: simple duple
!!!AIN: vox
!!!EED: Helmut Schaffrath
!!!EEV: 1.0
*-
!!!ONB: Tied note syntax fixed by Craig Sapp, 2004/05/03/
